X:0102
T:The Triumph
P:The Triumph
C:Aird 1797
R:Reel (4x24)
B:RSCDS 1-2
Z:Anselm Lingnau <anselm@strathspey.org>
M:C|
L:1/8
K:A
af|"A"eccA "E7"dBBG|"A"A2[a2A2] "D"[f2A2][a2A2]|"A"eccA "E7"dBBG|"A"A2c2A2 af|\
   "A"eccA "E7"dBBG|"A"A2[a2A2] "D"[f2A2][a2A2]|
                                               "A"eccA "E7"dBBG|"A"A2c2A2 z2||\
   "E"B2e2 "A"c2e2|"E"B2e2 "A"c2e2|"E"B2Bd "A"c2ce|"E7"c2B2 A2z2|
   "E"Be^de "A"cede|"E"Be^de "A"cede|"E"B2Bd "A"c2ce|"E7"c2B2 A2z2||\
   "A"c2cd e2c2|"E7"B2bc d2B2|
                              "A"c2cd eagf|"E7"edcB A2 AB|\
   "A"c2cd "F#7"fedc|"Bm"B2bc "E7"edcB|"A"c2cd ea"D"fe|"E7"edcB A2|]
